X: 10
T:Shepherds' Hey, Lichfield
M:2/2
L:1/8
A:Lichfield
P:AA2B2(A3B3)2
K:G
P:A
A|B2d2 c2c2|BcdB A2A2|BcdB ccBc|d2A2 G3||
P:B
A|B2G2 c3A |B2G2 A4 |BcdB cBcA|d2A2 G3||
